assets/img/header-logo1.svg

<svg version="1.2" baseProfile="tiny-ps" xmlns="http://www.w3.org/2000/svg" width="60" height="60"><path d="M12 0h36c6.63 0 12 5.37 12 12v36c0 6.63-5.37 12-12 12H12C5.37 60 0 54.63 0 48V12C0 5.37 5.37 0 12 0Z" style="fill:#5963ff"/><path d="M36.57 30c0 3.63-2.94 6.57-6.57 6.57-3.63 0-6.57-2.94-6.57-6.57 0-3.63 2.94-6.57 6.57-6.57 3.63 0 6.57 2.94 6.57 6.57Zm13.24 10.99c-.15-.15-.3-.28-.46-.39-.48-.36-.65-1.02-.39-1.56C50.27 36.3 51 33.24 51 30c0-3.24-.73-6.3-2.04-9.04-.26-.54-.09-1.2.39-1.56.16-.11.31-.24.46-.39 1.35-1.35 1.52-3.52.42-5.07a3.96 3.96 0 0 0-5.71-.78c-.04.03-.08.07-.12.1-.46.41-1.14.44-1.63.07A20.887 20.887 0 0 0 30 9c-4.8 0-9.23 1.61-12.77 4.33-.48.37-1.16.35-1.62-.05-.14-.14-.3-.26-.48-.37-1.6-1.04-3.75-.76-5.04.65a3.94 3.94 0 0 0 .42 5.74l.12.09c.49.37.67 1.02.41 1.57C9.73 23.7 9 26.76 9 30c0 3.24.73 6.3 2.04 9.04.26.54.09 1.2-.39 1.56-.16.11-.31.24-.46.39-1.35 1.35-1.52 3.52-.42 5.07a3.96 3.96 0 0 0 5.71.78c.04-.03.08-.07.12-.1.46-.41 1.14-.44 1.63-.07C20.77 49.39 25.2 51 30 51s9.23-1.61 12.77-4.33c.49-.37 1.17-.34 1.63.07.04.03.08.07.12.1a3.96 3.96 0 0 0 5.71-.78c1.1-1.55.93-3.72-.42-5.07ZM30 44.43c-7.97 0-14.43-6.46-14.43-14.43S22.03 15.57 30 15.57 44.43 22.03 44.43 30 37.97 44.43 30 44.43Z" style="fill:#fff"/></svg>

<svg version="1.2" baseProfile="tiny-ps" xmlns="http://www.w3.org/2000/svg" viewBox="0 0 60 60" width="60" height="60">
	<title>Logos</title>
	<style>
		tspan { white-space:pre }
		.shp0 { fill: #5963ff } 
		.shp1 { fill: #ffffff } 
	</style>
	<g id="Logos">
		<g id="2">
			<path id="Rectangle 11" class="shp0" d="M12 0L48 0C54.63 0 60 5.37 60 12L60 48C60 54.63 54.63 60 48 60L12 60C5.37 60 0 54.63 0 48L0 12C0 5.37 5.37 0 12 0Z" />
			<path id="Shape 5" class="shp1" d="M36.57 30C36.57 33.63 33.63 36.57 30 36.57C26.37 36.57 23.43 33.63 23.43 30C23.43 26.37 26.37 23.43 30 23.43C33.63 23.43 36.57 26.37 36.57 30ZM49.81 40.99C49.66 40.84 49.51 40.71 49.35 40.6C48.87 40.24 48.7 39.58 48.96 39.04C50.27 36.3 51 33.24 51 30C51 26.76 50.27 23.7 48.96 20.96C48.7 20.42 48.87 19.76 49.35 19.4C49.51 19.29 49.66 19.16 49.81 19.01C51.16 17.66 51.33 15.49 50.23 13.94C48.89 12.07 46.28 11.74 44.52 13.16C44.48 13.19 44.44 13.23 44.4 13.26C43.94 13.67 43.26 13.7 42.77 13.33C39.23 10.61 34.8 9 30 9C25.2 9 20.77 10.61 17.23 13.33C16.75 13.7 16.07 13.68 15.61 13.28C15.47 13.14 15.31 13.02 15.13 12.91C13.53 11.87 11.38 12.15 10.09 13.56C8.53 15.25 8.75 17.87 10.51 19.3C10.55 19.33 10.59 19.36 10.63 19.39C11.12 19.76 11.3 20.41 11.04 20.96C9.73 23.7 9 26.76 9 30C9 33.24 9.73 36.3 11.04 39.04C11.3 39.58 11.13 40.24 10.65 40.6C10.49 40.71 10.34 40.84 10.19 40.99C8.84 42.34 8.67 44.51 9.77 46.06C11.11 47.93 13.72 48.26 15.48 46.84C15.52 46.81 15.56 46.77 15.6 46.74C16.06 46.33 16.74 46.3 17.23 46.67C20.77 49.39 25.2 51 30 51C34.8 51 39.23 49.39 42.77 46.67C43.26 46.3 43.94 46.33 44.4 46.74C44.44 46.77 44.48 46.81 44.52 46.84C46.28 48.26 48.89 47.93 50.23 46.06C51.33 44.51 51.16 42.34 49.81 40.99ZM30 44.43C22.03 44.43 15.57 37.97 15.57 30C15.57 22.03 22.03 15.57 30 15.57C37.97 15.57 44.43 22.03 44.43 30C44.43 37.97 37.97 44.43 30 44.43Z" />
		</g>
	</g>
</svg>
